assets/desktop/contacts/contact-shape.svg

<svg width="575" height="540" viewBox="0 0 575 540" fill="none" xmlns="http://www.w3.org/2000/svg">
<path d="M439.804 427.341C413.861 462.495 385.392 490.254 351.722 509.231C318.063 528.201 279.126 538.439 232.175 538.439C153.625 538.439 99.465 508.035 74.2447 459.819C48.9974 411.552 52.5075 344.978 90.3246 272.17C100.837 251.931 97.146 228.989 87.0626 205.454C77.1549 182.328 60.9283 158.293 45.3168 135.168C45.0364 134.753 44.7562 134.338 44.4763 133.923C28.5516 110.332 13.4324 87.7705 6.09223 67.8583C2.42891 57.9207 0.75489 48.7712 1.81296 40.5697C2.86446 32.4191 6.62658 25.0971 14.0551 18.7733C26.1523 8.47518 45.0047 3.37218 67.82 1.93512C90.5904 0.500886 117.065 2.73144 144.168 6.87092C194.353 14.5357 246.468 28.707 280.845 38.0547C283.599 38.8035 286.239 39.5214 288.755 40.2026C311.298 46.3049 329.995 50.9829 345.627 54.8938C354.585 57.1349 362.535 59.1241 369.626 60.9851C389.17 66.1146 402.226 70.2827 412.302 76.0997C422.31 81.877 429.455 89.328 437.041 101.194C443.937 111.98 451.144 126.324 461.175 146.287C462.233 148.393 463.323 150.562 464.447 152.796C469.381 162.6 478.726 175.441 489.865 189.813C494.608 195.933 499.67 202.322 504.875 208.894C511.96 217.838 519.312 227.118 526.49 236.513C538.916 252.778 550.696 269.229 559.365 284.471C568.062 299.763 573.5 313.624 573.5 324.76C573.5 340.181 567.525 351.234 557.98 359.95C548.365 368.728 535.117 375.144 520.572 381.134C516.056 382.994 511.409 384.815 506.719 386.652C496.399 390.695 485.87 394.82 476.067 399.625C461.773 406.631 448.771 415.191 439.804 427.341Z" fill="white" stroke="white" stroke-width="3"/>
</svg>

<svg xmlns="http://www.w3.org/2000/svg" width="575" height="540" fill="none"><path d="M439.804 427.34c-25.943 35.154-54.412 62.913-88.082 81.9-33.66 18.97-72.596 29.208-119.547 29.208-78.55 0-132.7-30.404-157.93-78.62-25.247-48.267-21.737-114.84 16.08-187.65 10.512-20.24 6.82-43.18-3.262-66.716-9.908-23.126-26.134-47.16-41.746-70.286l-.84-1.245C28.552 110.332 13.432 87.77 6.092 67.858 2.43 57.92.755 48.77 1.813 40.57c1.05-8.15 4.814-15.473 12.242-21.796C26.152 8.475 45.005 3.372 67.82 1.935 90.6.5 117.065 2.73 144.168 6.87c50.185 7.665 102.3 21.836 136.677 31.184l7.9 2.148 56.872 14.69 24 6.09c19.544 5.13 32.6 9.298 42.676 15.115 10.008 5.777 17.153 13.228 24.74 25.094 6.896 10.786 14.103 25.13 24.134 45.093l3.272 6.51c4.934 9.804 14.28 22.645 25.418 37.017l15 19.08 21.615 27.62c12.426 16.265 24.206 32.716 32.875 47.958 8.697 15.292 14.135 29.153 14.135 40.29 0 15.42-5.975 26.474-15.52 35.2-9.615 8.778-22.863 15.194-37.408 21.184l-13.853 5.518c-10.32 4.043-20.85 8.168-30.652 12.973-14.294 7.006-27.296 15.566-36.263 27.716z" fill="#fff" stroke="#fff" stroke-width="3"/></svg>
